ui/public/imgs/providers/ns1.svg

﻿<svg xmlns="http://www.w3.org/2000/svg" width="200" height="200" viewBox="0 0 390 390"><path fill="#231f20" stroke="#231f20" d="M51.963 131.224c-.077.579-.118 112.462-.042 116.026L52 251h23.132l-.316-44.001c-.174-24.2-.074-44 .223-44 .296.001 2.273 4.389 4.393 9.751 3.967 10.038 10.957 24.373 28.401 58.25l10.041 19.5 15.063.276 15.063.276V130.937l-11.75.281-11.75.282v84l-3.75-7.875c-2.062-4.331-3.75-8.029-3.75-8.218 0-.888-27.165-54.292-33.016-64.907l-1.653-3-15.166-.276c-8.341-.152-15.182-.152-15.202 0m146.037.807c-11.778 2.475-22.924 10.888-27.645 20.868-3.543 7.488-3.702 19.258-.356 26.376 3.109 6.613 12.378 14.831 21.73 19.265 23.156 10.978 26.261 12.659 28.674 15.527 4.98 5.919 2.551 14.383-5.039 17.554-9.455 3.951-26.027-.858-36.881-10.702-1.988-1.804-2.109-1.695-8.5 7.606-3.566 5.189-6.483 10.225-6.483 11.191 0 3.605 14.819 11.258 25.853 13.351 6.554 1.243 20.919 1.184 27.942-.114 16.496-3.049 29.08-14.932 31.268-29.528 1.437-9.576-2.904-20.798-10.893-28.161-4.905-4.521-7.783-6.161-24.267-13.821-12.61-5.86-16.992-8.776-19-12.643-2.245-4.321-1.705-7.5 1.952-11.49 3.029-3.305 3.956-3.705 9.535-4.108 7.465-.54 13.628 1.508 19.904 6.616 2.399 1.953 4.634 3.095 5.065 2.588.424-.498 3.442-4.056 6.706-7.906s6.273-7.15 6.685-7.333c4.233-1.882-6.673-10.182-18.131-13.8-5.761-1.818-22.121-2.596-28.119-1.336m74 6.587c-13.821 9.504-13.103 7.911-8.09 17.932 2.363 4.726 4.861 8.809 5.55 9.073s3.905-1.285 7.146-3.444l5.894-3.925.26 46.373.26 46.373H307V132l-12.75.043-12.75.043-9.5 6.532"/><path fill="#f30270" stroke="#f30270" d="M325.071 225.703c-9.907 5.191-10.467 17.785-1.071 24.115 10.022 6.753 23.264-3.698 20.007-15.791-2.063-7.663-11.924-11.997-18.936-8.324"/></svg>

﻿<svg version="1.0" xmlns="http://www.w3.org/2000/svg" width="200" height="200" viewBox="0 0 390 390"><g fill="#231F20FD" stroke="#231F20FD"><path d="M 51.963 131.224 C 51.886 131.803 51.845 243.686 51.921 247.250 L 52.000 251.000 63.566 251.000 L 75.132 251.000 74.816 206.999 C 74.642 182.799 74.742 162.999 75.039 162.999 C 75.335 163.000 77.312 167.388 79.432 172.750 C 83.399 182.788 90.389 197.123 107.833 231.000 L 117.874 250.500 132.937 250.776 L 148.000 251.052 148.000 190.994 L 148.000 130.937 136.250 131.218 L 124.500 131.500 124.500 173.500 L 124.500 215.500 120.750 207.625 C 118.688 203.294 117.000 199.596 117.000 199.407 C 117.000 198.519 89.835 145.115 83.984 134.500 L 82.331 131.500 67.165 131.224 C 58.824 131.072 51.983 131.072 51.963 131.224 "/></g><g fill="#231F20FD" stroke="#231F20FD"><path d="M 198.000 132.031 C 186.222 134.506 175.076 142.919 170.355 152.899 C 166.812 160.387 166.653 172.157 169.999 179.275 C 173.108 185.888 182.377 194.106 191.729 198.540 C 214.885 209.518 217.990 211.199 220.403 214.067 C 225.383 219.986 222.954 228.450 215.364 231.621 C 205.909 235.572 189.337 230.763 178.483 220.919 C 176.495 219.115 176.374 219.224 169.983 228.525 C 166.417 233.714 163.500 238.750 163.500 239.716 C 163.500 243.321 178.319 250.974 189.353 253.067 C 195.907 254.310 210.272 254.251 217.295 252.953 C 233.791 249.904 246.375 238.021 248.563 223.425 C 250.000 213.849 245.659 202.627 237.670 195.264 C 232.765 190.743 229.887 189.103 213.403 181.443 C 200.793 175.583 196.411 172.667 194.403 168.800 C 192.158 164.479 192.698 161.300 196.355 157.310 C 199.384 154.005 200.311 153.605 205.890 153.202 C 213.355 152.662 219.518 154.710 225.794 159.818 C 228.193 161.771 230.428 162.913 230.859 162.406 C 231.283 161.908 234.301 158.350 237.565 154.500 C 240.829 150.650 243.838 147.350 244.250 147.167 C 248.483 145.285 237.577 136.985 226.119 133.367 C 220.358 131.549 203.998 130.771 198.000 132.031 "/></g><g fill="#231F20FD" stroke="#231F20FD"><path d="M 272.000 138.618 C 258.179 148.122 258.897 146.529 263.910 156.550 C 266.273 161.276 268.771 165.359 269.460 165.623 C 270.149 165.887 273.365 164.338 276.606 162.179 L 282.500 158.254 282.760 204.627 L 283.020 251.000 295.010 251.000 L 307.000 251.000 307.000 191.500 L 307.000 132.000 294.250 132.043 L 281.500 132.086 272.000 138.618 "/></g><g fill="#F30270FE" stroke="#F30270FE"><path d="M 325.071 225.703 C 315.164 230.894 314.604 243.488 324.000 249.818 C 334.022 256.571 347.264 246.120 344.007 234.027 C 341.944 226.364 332.083 222.030 325.071 225.703 "/></g></svg>
